lib/brands/icons/dropbox.svg

<svg xmlns="http://www.w3.org/2000/svg" fill="none" aria-hidden="true" viewBox="0 0 48 48"><g id="dropbox-Icon"><g id="Group"><g id="Union"><path fill="#0061FF" d="M14.9992 8.7041L6 14.4375L14.9992 20.171L23.9999 14.4375L14.9992 8.7041Z"/><path fill="#0061FF" d="M33 8.7041L23.9999 14.4381L33 20.172L42 14.4381L33 8.7041Z"/><path fill="#0061FF" d="M14.9992 31.6389L6 25.9055L14.9992 20.172L23.9999 25.9055L14.9992 31.6389Z"/><path fill="#0061FF" d="M33 20.172L23.9999 25.906L32.9999 31.6399L41.9999 25.906L33 20.172Z"/><path fill="#0061FF" d="M24.0007 39.2959L15 33.5625L24.0007 27.829L32.9999 33.5625L24.0007 39.2959Z"/></g></g></g></svg>

<svg xmlns="http://www.w3.org/2000/svg" fill="none" aria-hidden="true" viewBox="0 0 48 48"><g fill="#0061FF"><path d="m15 8.704-9 5.733 9 5.734 9-5.733-9-5.734Zm18 0-9 5.734 9 5.734 9-5.734-9-5.734ZM15 31.639l-9-5.733 9-5.734 9 5.733-9 5.734Z"/><path d="m33 20.172-9 5.734 9 5.734 9-5.734-9-5.734Zm-9 19.124-9-5.733 9-5.734 9 5.733-9 5.734Z"/></g></svg>
